X:218
M:C
L:1/8
Q:1/4=140
K:B_
f>de>c d>B d/c/B/A/|B>F G/F/E/D/ C/D/E/F/ G||A|B/c/d/e/ f>b d>bf>b|
f>Bd>c B/c/d/e/ f2|c/d/e/f/ g>b d>bg>b|b>ag>d c/d/e/f/ ~g2|

